icon/pk/handwashing.svg

<svg viewBox="0 0 48 48" fill="none" xmlns="http://www.w3.org/2000/svg" height="1em" width="1em">
  <rect x="4" y="24" width="7" height="20" stroke="black" stroke-width="4" stroke-linecap="round" stroke-linejoin="round"/>
  <path d="M32.0003 16C30.5006 12.5 36.0003 6 36.0003 6C36.0003 6 41.5001 12.5 40.0003 16C38.5005 19.5 33.5 19.5 32.0003 16Z" fill="#2F88FF" stroke="black" stroke-width="4" stroke-linecap="round" stroke-linejoin="round"/>
  <path d="M31 42.5001C22 42.5001 15 40.0001 11 40.0001V30.0001C18 30.0001 17.5 27.5001 22 26.0001C26.5 24.5001 30 26.0001 29.5 29.0001C29 32.0001 24 35.0001 24 35.0001C32 35.0001 32 33.0001 36 30.0001C40 27.0001 44 28.0001 44 31.0001C44 34.0001 40 42.5001 31 42.5001Z" fill="#2F88FF" stroke="black" stroke-width="4" stroke-linecap="round" stroke-linejoin="round"/>
</svg>

<svg width="48" height="48" fill="none" xmlns="http://www.w3.org/2000/svg"><path stroke="#000" stroke-width="4" stroke-linecap="round" stroke-linejoin="round" d="M4 24h7v20H4z"/><path d="M32 16c-1.5-3.5 4-10 4-10s5.5 6.5 4 10-6.5 3.5-8 0ZM31 42.5c-9 0-16-2.5-20-2.5V30c7 0 6.5-2.5 11-4s8 0 7.5 3-5.5 6-5.5 6c8 0 8-2 12-5s8-2 8 1-4 11.5-13 11.5Z" fill="#2F88FF" stroke="#000" stroke-width="4" stroke-linecap="round" stroke-linejoin="round"/></svg>
